!!!OTL: Pfaffenschlich.
!!!OTL-incipit: DER GRAF STAND OBEN AUF SEINEM SCHLOSS
!!!ARE: Europa, Mitteleuropa, Deutschland
!!!SCT: Z1034
!!!TXL: @@DE
!!!YEM: Copyright 1995, estate of Helmut Schaffrath.
**kern	**text
*ICvox	*
*M6/8	*
*k[b-]	*
*d:	*
!LO:TX:a:t=Vorſänger.	!
!LO:TX:a:t=Babenberger Sage.	!
{8a	Der
=1	=1
4dd	Graf
8cc#	ſtand
8dd	o-
8a	-ben
8ee	auf
=2	=2
8ffL	ſei-
8eeJ	.
8dd	-nem
4ee;}	Schloß,
{8a	ſchaut
=3	=3
4dd	rings
8cc	her-
8b-	-um
8b-	auf
8a	der
=4	=4
4a	Fein-
8g	-de
4a;}	Troß!
!LO:TX:a:t=Alle.	!
{8e	Und
=5	=5
8a	was
8g	ſein
8a	Verſprechen,
8f	.
8d;	.
8dd/	er
=6	=6
8cc/	wird
8b-/	es
16aL	doch
16gJ	.
8a	brechen,
8f}	.
{8ff/	die
=7	=7
4ee/	Wei-
8dd/	-de
8cc#/	bie-
8a	-get
8dd/	ſich
=8	=8
4dd/	je-
8cc#/	-dem
4dd;/}	Wind!
==	==
!!!AGN: Romanze, Ballade, Babenberger Sage
!!!ONB: ESAC (Essen Associative Code) Database: ZUCCAL
!!!AMT: compound duple
!!!AIN: vox
!!!EED: Helmut Schaffrath
!!!EEV: 1.0
!!@@COMMENT:"In original fragments for three voices"
!!@@END:
!!!GTL: I. Volks- Leuschen.
!!!URL-scan: https://www.digitale-sammlungen.de/de/view/bsb11160573?page=85
!!!ENC: Anna Maria Matuszewska
!!!EEV: 2025/03/02
*-	*-
